X: 1
T: Hawthornden
M: 4/4
L: 1/8
R: reel
K: Dmaj
|:(3ABc|dcde fgfe|d2a2a2gf|gaba gfed|f2e2e2 (3ABc|
dcde fgfe|d2f2B2de|fgfe dbag|f2d2d2:|
|:ef|gfed cBAG|F2E2E2 Bc|dcBf edcB|f2B2B2 ef|
gfed cBAG|F2B2A2de|fgfe Bbag|f2d2d2:|
